X:1
T:Den store, hvide Flok vi se
T:(Salmer og Aandelige Sange, no.4)
T:Carl Nielsen (FS83/4)
T:H.A. Brorson
T:Den store, hvide Flok vi se (Salmer og Aandelige Sange, no.4)
T:Copyright (c) 2006 by Choral Public Domain Library (http://www.cpdl.org). Edition may be freely distributed, duplicated, performed or recorded.
T:Copyright (c) 2006 by Choral Public Domain Library (http://www.cpdl.org). Edition may be freely distributed, duplicated, performed or recorded.
T:Copyright (c) 2006 by Choral Public Domain Library (http://www.cpdl.org). Edition may be freely distributed, duplicated, performed or recorded.
T:Copyright (c) 2006 by Choral Public Domain Library (http://www.cpdl.org). Edition may be freely distributed, duplicated, performed or recorded.
C:Carl Nielsen (FS83/4)
Z:H.A. Brorson
Z:Copyright (c) 2006 by Choral Public Domain Library (http://www.cpdl.org).
Z:Edition may be freely distributed, duplicated, performed or recorded.
%%score [ 1 2 3 4 ]
L:1/8
M:4/4
K:B
V:1 treble nm="S." snm="S."
V:2 treble nm="A." snm="A."
V:3 treble-8 transpose=-12 nm="T." snm="T."
V:4 bass nm="B." snm="B."
V:1
 F2 |: F2 B2 A2 G2 | F3 E D2 C2 | B,2 C2 D2 E2 | F3 G F2 D2 | G2 F2 G2 A2 | B3 c d2 c2 | %7
w: Den|sto- re, hvi- de|Flok vi se, som|tu- sind Bjær- ge|fuld af Sne, med|Skov om- kring af|Pal- me- sving for|
w: |er den Hel- te-|ska- re, som af|hin, den sto- re,|Træng- sel kom og|har sig toed i|Lam- mets Blod til|
 B2 B2 A2 A2 |1 G6 F2 :|2 G6 A2 || B2 A2 G2 G2 | c3 B A2 G2 | F2 D2 G2 A2 | B3 c d2 B2 | %14
w: Tro- nen. Hvo er|de? Det|* dér|hol- der de nu|Kir- ke- gang med|u- op- hør- lig|Ju- bel- klang i|
w: Him- lens Hel- lig-||dom, *|||||
 e2 d2 c2 d2 | B2 G2 F2 (DE) | F2 B2 B2 A2 | !fermata!B6 |] %18
w: høj- e Kor, hvor|Gud han bor blandt _|al- le Eng- les|Sang.|
w: ||||
V:2
 C2 |: D2 F2 F2 E2 | B,2 A,2 B,2 (F,G,) | B,2 A,2 B,2 B,2 | A,2 B,2 A,2 A,2 | B,2 D2 E2 E2 | %6
w: Den|sto- re, hvi- de|Flok * vi som _|tu- sind Bjær- ge|fuld af Sne, med|Skov om- kring af|
w: |er den Hel- te-|ska- * re, af _|hin, den sto- re,|Træng- sel kom og|har sig toed i|
 F2 F2 F2 E2 | D2 G2 G2 ^^F2 |1 D6 D2 :|2 D6 F2 || F2 F2 F2 ^E2 | F2 F2 F2 ^E2 | D2 B,2 E2 E2 | %13
w: Pal- me- sving for|Tro- nen. Hvo er|de? Det|* dér|hol- der de nu|Kir- ke- gang med|u- op- hør- lig|
w: Lam- mets Blod til|Him- lens Hel- lig-||dom, *||||
 D2 G2 ^^F2 G2 | GA B4 A2 | D2 (ED) C2 B,2 | D2 D2 C2 C2 | !fermata!D6 |] %18
w: Ju- bel- klang i|høj- e Kor, hvor|Gud han _ bor blandt|al- le Eng- les|Sang.|
w: |||||
V:3
 A2 |: B2 B2 c2 c2 | F2 F2 F2 (AG) | F2 E2 F2 E2 | C2 D2 F2 F2 | E2 B2 B2 c2 | B2 A2 B2 (GA) | %7
w: Den|sto- re, hvi- de|Flok * vi som _|tu- sind Bjær- ge|fuld af Sne, med|Skov om- kring af|Pal- me- sving for _|
w: |er den Hel- te-|ska- * re, af _|hin, den sto- re,|Træng- sel kom og|har sig toed i|Lam- mets Blod til _|
 B2 e2 e2 d2 |1 B6 B2 :|2 B6 c2 || B2 c2 d2 c2 | c2 d2 c2 c2 | A2 B2 B2 c2 | B2 G2 A2 G2 | %14
w: Tro- nen. Hvo er|de? Det|* dér|hol- der de nu|Kir- ke- gang med|u- op- hør- lig|Ju- bel- klang i|
w: Him- lens Hel- lig-||dom, *|||||
 c2 F2 G2 A2 | B2 B2 A2 B2 | A2 G2 G2 F2 | !fermata!F6 |] %18
w: høj- e Kor, hvor|Gud han bor blandt|al- le Eng- les|Sang.|
w: ||||
V:4
 F,2 |: B,,2 D,2 F,2 C,2 | D,2 C,2 B,,2 (F,E,) | D,2 C,2 B,,2 G,,2 | F,,2 B,,2 D,2 F,2 | %5
w: Den|sto- re, hvi- de|Flok * vi som _|tu- sind Bjær- ge|fuld af Sne, med|
w: |er den Hel- te-|ska- * re, af _|hin, den sto- re,|Træng- sel kom og|
 E,2 B,,2 E,2 C,2 | D,2 F,2 B,,2 (E,F,) | G,2 E,2 C,2 D,2 |1 G,6 B,2 :|2 G,6 (F,^E,) || %10
w: Skov om- kring af|Pal- me- sving for _|Tro- nen. Hvo er|de? Det|* dér _|
w: har sig toed i|Lam- mets Blod til _|Him- lens Hel- lig-||dom, * *|
 D,2 F,2 B,,2 (C,B,,) | A,,2 (B,,D,) F,2 C,2 | D,2 G,2 E,2 (D,C,) | %13
w: hol- der de nu _|Kir- ke- * gang med|u- op- hør- lig _|
w: |||
 G,2 E,2"^rev.1(11/06)" D,2 E,2 | C,2 D,2 E,2 F,2 | %15
w: Ju- bel- klang i|høj- e Kor, hvor|
w: ||
"^Den store, hvide Flok vi se,som tusind Bjærge fuld af Sne,med Skov omkringaf Palmesvingfor Tronen.  Hvo er de?Det er den Helteskare, somaf hin, den store, Trængsel komog har sig toedi Lammets Blodtil Himlens Helligdom,dér holder de nu Kirkegangmed uophørlig Jubelklangi høje Kor,hvor Gud han borblandt alle Engles Sang.Her gik de under stor Foragt!Men se dem nu i deres Pragtfor Tronen staamed Kroner paa,i Himlens Præstedragt!Sandt er det, i saa mangen Nødtit Taarestrøm paa Kinder flød;men Gud har dem,straks de kom hjem,aftørret paa sit Skød.Nu holder de, og har til bedsthos ham en evig Løvsalsfest;og Lammet selv,ved Livets Elv,er baade Vært og Gæst.Til Lykke, Kæmpe-Samling, jao, tusind Fold til Lykke da,at du var hersaa tro isærog slap saa vel herfra!Du har foragtet Verdens Trøst,saa lev nu evig vel og høst,hvad du har saa’tmed Suk og Graad,i tusind Englelyst!Ophøj din Røst, slaa Palme-Takt,og sjung af Himmelkraft og Magt:Pris være digevindelig,vor Gud og Lammet sagt!                    Hans Adolf Brorson (1694-1764) from Svane-Sang (1765)" G,2 E,2 F,2 G,2 | %16
w: Gud han bor blandt|
w: |
 D,2 (G,F,) E,2 F,2 | !fermata!B,,6 |] %18
w: al- le _ Eng- les|Sang.|
w: ||

